X:399 
T: via EF
M:6/8
K:A
P:Ae|"A"eaf e2c|"E7"BAB "A"c3|"A"E2A "E7/b"BAB|"A/c+"cBc "D"dcd|
"A"eaf e2c|"E7"BAB "A"c3|"E7"E2E EFG|"A"A3 "A7" Add "D" d2:|
"B"e|"D"fga agf|"G" BdB AFD| "D"DFA "G"B2 A|"Em" cee "A7" e2 A|"D" def fed|"G" BdB "D"AFD|"D" DFA "G"B2 A|"A7" Add "D" d2:|\n"B"e|"D"fga agf|"G" gab "A7"bag|"D" fga "A7"efg|"D" fdd d2 :|

##########################################################################################################################################################################################################################

  
XnsrKp//a/ N:ini/:T/2eefee|f|"d|(ad/g|PtM:"G((tdd|Tf (3bba 3A(GAh(23(G/dmabfBAff(3d3Afff df "D"debfed/2/f/2afhe(/2fb2|"D7"Dm"G"gDefA"G/fg/2G"G"Bdedto/bdf\n%/ri/ ad3/A"AAeg(3tt/r"D"GFfcbe2eaa/baD"GcgfGB(bbf/(3/2// \\AfA/bm"da|\\/Ae(3 
M:oB4 DG/2B dfde "(3e"(33Da2efbdf|"3m"D"Afaf3Bd3eb2|
P:|"DN3
P:Bp3bbbebgaB
%:aH
XT:npn/4sd
M::/2egBcm
L:bG7"7"cBaeg "g|"Daf2|
